X: 55
T: Tallapolskan
T: Senpolska efter J\"onsagubben
O: H\"alsingland, Sweden
R: slow polska
S: http://www.folksweden.com/files/Tallapolskan.pdf (Tim Rued)
Z: 2021 John Chambers <jc:trillian.mit.edu>
M: 3/4
L: 1/16
K: Gm
D2 |\
G3A B2AB F4 | d6 cd e2d2 | d2c2 c2Bc d2c2 | c2B2 B2AB c3B | A3G ^F2G2 A2B2 |
d4 cBAG ^F2D2 || G3A B2AB F4 | d6 cd e2d2 | d2c2 c2=Bc a4 | B6 AB c3B | A3G ^F2G2 A2d2 |
BAG^F G6 :: g2 | g^fga b4 a4 | g4 ^fgaf d4 | g2=bg ^f2af =e2g2 | ^f=ed^c dA^FA D4 ||
G3A B2AB F4 | d6 cd e2d2 | d2c2 c2Bc d2c2 | c2B2 B2AB c3B | A3G ^F2G2 A2d2 | BAG^F G6 :|
